X:44
T:Wanton Betty's Vagaries
M:6/8
L:1/8
B:Thompson's Compleat Collection of 200 Favourite Country Dances, vol. 1 (London, 1757)
Z:Transcribed and edited by Fynnian Titford-Mock, 2007
Z:abc's:AK/Fiddler's Companion
K:G
GAG G2e|dBG A3|c3 BAG|FGA AFD|GAG G2e|dBG {ef}g3|fed e3|d3 D3:|
|:ded b2c|cdc a2B|BcB g2G|FGA AFD|ded b2c|cdc gfe|dcB A3|G3 G,3:|

